assets/svg/594-C.svg

<svg xmlns="http://www.w3.org/2000/svg" xmlns:xlink="http://www.w3.org/1999/xlink" width="20.63" height="20.63"><defs><path id="a" d="M0 0h20.63v20.63H0z"/></defs><clipPath id="b"><use xlink:href="#a" overflow="visible"/></clipPath><path fill="none" stroke="#00AEEF" stroke-width=".5" d="m13.23 19.3.3 1.32m3.27-3.18-3.57 1.85m5.37 1.34-.04-.06-1.75-3.13m2.17-1.64.5-2.76m1.15 3.82-1.65-1.07m0 .01-6.5-2.5m6.5 2.5-2.17 1.64M2.6 12.3l3.15 1.5m-3.63 4.43 2.2-.8 1.43-3.62M2.6 12.3l-2.6.5m2.12 5.43H2.1L0 16.87m14.23-6.33 3.3-1.12m-3.3 1.12-3-2.37m2.12-2.13 5.88 1.13m-5.88-1.13-2.12 2.13m-.75 8 2.75 3.12m1-8.75-3.75 5.63m0 0-3 .25M5.35 20.3l.65.32m-.65-.32 2.13-3.88M13.2 12l-4.32.3-2.76-2.1m5.11-2.03L6.7 6.75m0 0-.58 2.3-.37 4.76m-.49 1.29 2.22 1.32M2 19.13l3.35 1.16m0 .01-.28.32M2.8 2.63.45 2.19m2.35.44L5.08 0M19.3 2.38l-1.24 1.56m-4.21-2.4L13.52 0m5.71 7.17-1.17-3.23m-4.21-2.4 4.2 2.4m2.58-1.52-.03.02-1.3-.06m0 0L18.64.06 18.6 0M0 2.42l1.6-1m1.13 8.75.9-4.86M6 0l3.23 1.67m4.12 4.37.5-4.5m-4.62.13 4.62-.13M6.7 6.75l1.6-1.2.93-3.88m-6.43.96.76 2.5L6.7 6.75m13.93 6.05-1.15.24m-.25-5.87-1.7 2.25m1.95 3.62-1.94-3.62m3.09-1.24-1.4-1M2.6 12.3l.13-2.13m0 0L0 8.17m2.12 10.06v-.04m-.57 2.44.57-2.4M1.55 0l.14 1.38" clip-path="url(#b)"/></svg>

<?xml version="1.0"?>
<svg xmlns="http://www.w3.org/2000/svg" xmlns:xlink="http://www.w3.org/1999/xlink" width="20.625" height="20.625">
  <defs>
    <path id="a" d="M0 0h20.63v20.63H0z"/>
  </defs>
  <clipPath id="b">
    <use xlink:href="#a" overflow="visible"/>
  </clipPath>
  <path fill="none" stroke="#00AEEF" stroke-width=".5" d="M13.23 19.3l.3 1.32M16.8 17.44l-3.57 1.85M18.6 20.63l-.04-.06-1.75-3.13M18.98 15.8l.5-2.76M20.63 16.86l-1.65-1.07M18.98 15.8l-6.5-2.5M18.98 15.8l-2.17 1.64M2.6 12.3l3.15 1.5M2.12 18.23l2.2-.8 1.43-3.62M2.6 12.3l-2.6.5M2.12 18.23H2.1L0 16.87M14.23 10.54l3.3-1.12M14.23 10.54l-3-2.37M13.35 6.04l5.88 1.13M13.35 6.04l-2.12 2.13M10.48 16.17l2.75 3.12M14.23 10.54l-3.75 5.63M10.48 16.17l-3 .25M5.35 20.3l.65.32M5.35 20.3l2.13-3.88M13.2 12l-4.32.3-2.76-2.1M11.23 8.17L6.7 6.75M6.7 6.75l-.58 2.3-.37 4.76M5.26 15.1l2.22 1.32M2 19.13l3.35 1.16M5.35 20.3l-.28.32M2.8 2.63L.45 2.19M2.8 2.63L5.08 0M19.3 2.38l-1.24 1.56M13.85 1.54L13.52 0M19.23 7.17l-1.17-3.23M13.85 1.54l4.2 2.4M20.63 2.42l-.03.02-1.3-.06M19.3 2.38L18.64.06 18.6 0M0 2.42l1.6-1M2.73 10.17l.9-4.86M6 0l3.23 1.67M13.35 6.04l.5-4.5M9.23 1.67l4.62-.13M6.7 6.75l1.6-1.2.93-3.88M2.8 2.63l.76 2.5L6.7 6.75M20.63 12.8l-1.15.24M19.23 7.17l-1.7 2.25M19.48 13.04l-1.94-3.62M20.63 8.18l-1.4-1M2.6 12.3l.13-2.13M2.73 10.17L0 8.17M2.12 18.23v-.04M1.55 20.63l.57-2.4M1.55 0l.14 1.38" clip-path="url(#b)"/>
</svg>
